ix/location-tick_outline.svg

<svg viewBox="0 0 24 24" fill="none" xmlns="http://www.w3.org/2000/svg" height="1em" width="1em">
  <path d="M11.9997 22.76C10.5197 22.76 9.02969 22.2 7.86969 21.09C4.91969 18.25 1.65969 13.72 2.88969 8.33C3.99969 3.44 8.26969 1.25 11.9997 1.25C11.9997 1.25 11.9997 1.25 12.0097 1.25C15.7397 1.25 20.0097 3.44 21.1197 8.34C22.3397 13.73 19.0797 18.25 16.1297 21.09C14.9697 22.2 13.4797 22.76 11.9997 22.76ZM11.9997 2.75C9.08969 2.75 5.34969 4.3 4.35969 8.66C3.27969 13.37 6.23969 17.43 8.91969 20C10.6497 21.67 13.3597 21.67 15.0897 20C17.7597 17.43 20.7197 13.37 19.6597 8.66C18.6597 4.3 14.9097 2.75 11.9997 2.75Z" fill="#292D32"/>
  <path d="M10.7495 13.7499C10.5595 13.7499 10.3695 13.6799 10.2195 13.5299L8.71945 12.0299C8.42945 11.7399 8.42945 11.2599 8.71945 10.9699C9.00945 10.6799 9.48945 10.6799 9.77945 10.9699L10.7495 11.9399L14.2195 8.46994C14.5095 8.17994 14.9895 8.17994 15.2795 8.46994C15.5695 8.75994 15.5695 9.23994 15.2795 9.52994L11.2795 13.5299C11.1295 13.6799 10.9395 13.7499 10.7495 13.7499Z" fill="#292D32"/>
</svg>

<svg viewBox="0 0 24 24" fill="none" xmlns="http://www.w3.org/2000/svg" height="1em" width="1em">
  <path d="M12 22.76a5.97 5.97 0 0 1-4.13-1.67c-2.95-2.84-6.21-7.37-4.98-12.76C4 3.44 8.27 1.25 12 1.25h.01c3.73 0 8 2.19 9.11 7.09 1.22 5.39-2.04 9.91-4.99 12.75A5.97 5.97 0 0 1 12 22.76Zm0-20.01c-2.91 0-6.65 1.55-7.64 5.91C3.28 13.37 6.24 17.43 8.92 20a4.426 4.426 0 0 0 6.17 0c2.67-2.57 5.63-6.63 4.57-11.34-1-4.36-4.75-5.91-7.66-5.91Z" fill="#292D32"/>
  <path d="M10.75 13.75c-.19 0-.38-.07-.53-.22l-1.5-1.5a.754.754 0 0 1 0-1.06c.29-.29.77-.29 1.06 0l.97.97 3.47-3.47c.29-.29.77-.29 1.06 0 .29.29.29.77 0 1.06l-4 4c-.15.15-.34.22-.53.22Z" fill="#292D32"/>
</svg>
